fs/apps_add_in_16_filled.svg

<svg viewBox="0 0 16 16" fill="none" xmlns="http://www.w3.org/2000/svg" height="1em" width="1em">
  <path d="M13.25 1.75C13.25 1.33579 12.9142 1 12.5 1C12.0858 1 11.75 1.33579 11.75 1.75V2.75H10.75C10.3358 2.75 10 3.08579 10 3.5C10 3.91421 10.3358 4.25 10.75 4.25H11.75V5.25C11.75 5.66421 12.0858 6 12.5 6C12.9142 6 13.25 5.66421 13.25 5.25V4.25H14.25C14.6642 4.25 15 3.91421 15 3.5C15 3.08579 14.6642 2.75 14.25 2.75H13.25V1.75ZM4 2C2.89543 2 2 2.89543 2 4V11.75C2 12.8546 2.89543 13.75 4 13.75H12C13.1046 13.75 14 12.8546 14 11.75V9.25C14 8.14543 13.1046 7.25 12 7.25H8.75V4C8.75 2.89543 7.85457 2 6.75 2H4ZM7.25 8.75V12.25H4C3.72386 12.25 3.5 12.0261 3.5 11.75V8.75H7.25ZM7.25 4V7.25H3.5V4C3.5 3.72386 3.72386 3.5 4 3.5H6.75C7.02614 3.5 7.25 3.72386 7.25 4ZM12 12.25H8.75V8.75H12C12.2761 8.75 12.5 8.97386 12.5 9.25V11.75C12.5 12.0261 12.2761 12.25 12 12.25Z" fill="#212121"/>
</svg>

<svg viewBox="0 0 16 16" fill="none" xmlns="http://www.w3.org/2000/svg" height="1em" width="1em">
  <path d="M13.25 1.75a.75.75 0 0 0-1.5 0v1h-1a.75.75 0 0 0 0 1.5h1v1a.75.75 0 0 0 1.5 0v-1h1a.75.75 0 0 0 0-1.5h-1v-1ZM4 2a2 2 0 0 0-2 2v7.75a2 2 0 0 0 2 2h8a2 2 0 0 0 2-2v-2.5a2 2 0 0 0-2-2H8.75V4a2 2 0 0 0-2-2H4Zm3.25 6.75v3.5H4a.5.5 0 0 1-.5-.5v-3h3.75Zm0-4.75v3.25H3.5V4a.5.5 0 0 1 .5-.5h2.75a.5.5 0 0 1 .5.5ZM12 12.25H8.75v-3.5H12a.5.5 0 0 1 .5.5v2.5a.5.5 0 0 1-.5.5Z" fill="#212121"/>
</svg>
